X: 1
T: Trekant nr. 10
F: http://www.folketshus.dk/cgi-bin/visnode.cgitr-nr10
R: jig
Z: 2006 John Chambers <jc:trillian.mit.edu>
M: 6/8
L: 1/8
K: G
g \
| "D7"f2e d2c | "G"B2A G2B | "D7"ABc DEF | "G"G2B d2g \
| "D7"f2e d2c | "G"B2A G2B | "D7"ABc DEF | "G"G3- G2 :|
|: D \
| "G"G2G GFG | "D7"A2F D2D |     A2A AGA | "G"B2G D2D \
|    B2B BaB |  "C"c3  e3  | "D7"ded cBA | "G"G3- G2 :|
